!!!!SEGMENT: Distler_Jahrkreis_23_Komm-heilger-Geist-o-Schoepfer-du_3v.krn
!!!COM: Distler, Hugo
!!!CDT: 1908-1942
!!!OPR@@DE: Der Jahrkreis
!!!OPR@EN: The Year Cycle
!!!OTL@@DE: Komm, heilger Geist, o Schoepfer du (3v)
!!!OTL@EN: Come, Holy Ghost, Creator, God
!!!OPS: 5
!!!ONM: 23
!!!ONB: Odd verses
**kern	**text	**kern	**text	**kern	**text
*part3	*part3	*part2	*part2	*part1	*part1
*staff3	*staff3	*staff2	*staff2	*staff1	*staff1
*Ibass	*	*Ialto	*	*Isoprn	*
*clefF4	*	*clefG2	*	*clefG2	*
*k[b-e-]	*	*k[b-e-]	*	*k[b-e-]	*
*MM120	*	*MM120	*	*MM120	*
*M4/4	*	*M4/4	*	*M4/4	*
*met(c)	*	*met(c)	*	*met(c)	*
=1	=1	=1	=1	=1	=1
2r	.	4f	Komm,	2f	Komm,
.	.	(4.f	heil-	.	.
4r	.	.	.	4g	heil-
.	.	8e-	.	.	.
4B-	Komm,	4d)	.	4f	ger
=2	=2	=2	=2	=2	=2
4c	heil-	4c	ger	4e-	Geist,
4B-	ger	2d	Geist,	4f	o
8G	Geist,	.	.	4b-	Schoep-
8B-	o	.	.	.	.
4A-	Schoep-	(8e-L	o	4cc	fer
.	.	8fJ)	.	.	.
=3	=3	=3	=3	=3	=3
2E-	fer	4g	Schoep-	4b-,	du,
.	.	4a	fer	4b-	sprich
4B-,	du,	4b-,	du,	4f	dei-
4B-	sprich	4b-	sprich	4g	nen
!!LO:LB:g=original
=4	=4	=4	=4	=4	=4
8An	dei-	8b-	dei-	4b-	ar-
8G	nen	8b-	nen	.	.
8F	ar-	8b-	ar-	4cc	men
8C	men	8a-	men	.	.
4G	See-	4.cc	See-	4dd	See-
*	*	*	*	*^	*
4G	len	.	.	4dd	4dd	len
.	.	8b-	len	.	.	.
=5	=5	=5	=5	=5	=5	=5
4.C,	zu;	4g,	zu;	2.een	2.cc	zu;
*	*	*	*	*v	*v	*
.	.	4g	er-	.	.
8c	er-	.	.	.	.
8F	fuell	4an	fuell	.	.
8F	mit	.	.	.	.
[4B-	Gna-	4f	mit	4r	.
=6	=6	=6	=6	=6	=6
4B-]	.	4d	Gna-	4r	.
4A	den,	4c,	den,	4cc	er-
(2d	sue-	4f	er-	4dd	fuell
.	.	4g	fuell	4b-	mit
!!LO:LB:g=original
=7	=7	=7	=7	=7	=7
8cL	.	4e-	mit	4g	Gna-
8B-J	.	.	.	.	.
4A)	.	8c	Gna-	4f	den
.	.	8B-	den,	.	.
2G	sser	4d	sue-	(8gL	sue-
.	.	.	.	8aJ)	.
*	*	*	*	*^	*
.	.	4d	sser	4b-	4b-	sser
=8	=8	=8	=8	=8	=8	=8
4F,	Gast,	2f	Gast,	2cc	2a	Gast,
*	*	*	*	*v	*v	*
4F	die,	.	.	.	.
4.B-	Brust,	4r	.	2r	.
.	.	4b-	die	.	.
8A	die	.	.	.	.
=9	=9	=9	=9	=9	=9
4G	du	4e-	Brust,	4r	.
4F	ge-	4f	die	4f	die
(8E-L	schaf-	(8gL	du	8b-	Brust,
8D	.	8fJ)	.	8g	die
8C	.	(8e-L	ge-	8e-	du
8BB-J	.	8dJ)	.	8g	ge-
=10	=10	=10	=10	=10	=10
4C)	.	4c	schaf-	4.f	schaf-
4F	fen	4c	fen	.	.
.	.	.	.	8f	fen
2BB-	hast.	2d	hast.	2f	hast.
==	==	==	==	==	==
*-	*-	*-	*-	*-	*-
!!!YOR: Bärenreiter-Ausgabe 676
!!!YOY: 1933
!!!EFL: 23b/52
!!!URL-github: https://github.com/LucasHofmann/distler/blob/main/Jahrkreis/Distler_Jahrkreis_23_Komm-heilger-Geist-o-Schoepfer-du_3v.krn
!!!URL-pdf: https://imslp.eu/files/imglnks/euimg/7/7d/IMSLP834545-PMLP518834-5-jahrkreis-EA--original-paper-600dpi.pdf#page=44 First edition, Kassel: Bärenreiter, 1933. Plate BA 676.
!!!URL-imslp: https://imslp.org/wiki/Der_Jahrkreis,_Op.5_(Distler,_Hugo)#IMSLP834545
!!!system-decoration: [(s1,s2,s3)]
!!!ENC: Lucas Hofmann
!!!END: 2023/10/29
!!!title: @{OPR@@DE}, Op. @{OPS}, Nr. @{ONM}. <i>@{OTL@@DE}</i> (odd verses)
